src/assets/icons/adwaita/places/folder-publicshare.svg

<?xml version="1.0" encoding="UTF-8"?>
<svg height="128px" viewBox="0 0 128 128" width="128px" xmlns="http://www.w3.org/2000/svg" xmlns:xlink="http://www.w3.org/1999/xlink">
    <linearGradient id="folder_publicshare_a" gradientTransform="matrix(0.45451 0 0 0.455522 -1210.292114 616.172607)" gradientUnits="userSpaceOnUse" x1="2689.251953" x2="2918.069824" y1="-1106.802979" y2="-1106.802979">
        <stop offset="0" stop-color="#62a0ea"/>
        <stop offset="0.0576991" stop-color="#afd4ff"/>
        <stop offset="0.122204" stop-color="#62a0ea"/>
        <stop offset="0.873306" stop-color="#62a0ea"/>
        <stop offset="0.955997" stop-color="#c0d5ea"/>
        <stop offset="1" stop-color="#62a0ea"/>
    </linearGradient>
    <path d="m 21.976562 12 c -5.527343 0 -9.976562 4.460938 -9.976562 10 v 86.03125 c 0 5.542969 4.449219 10 9.976562 10 h 84.042969 c 5.53125 0 9.980469 -4.457031 9.980469 -10 v -72.085938 c 0 -6.628906 -5.359375 -12 -11.972656 -12 h -46.027344 c -2.453125 0 -4.695312 -1.386718 -5.796875 -3.582031 l -1.503906 -2.992187 c -1.65625 -3.292969 -5.019531 -5.371094 -8.699219 -5.371094 z m 0 0" fill="#438de6"/>
    <path d="m 65.976562 36 c -2.746093 0 -5.226562 1.101562 -7.027343 2.890625 c -2.273438 2.253906 -5.382813 5.109375 -8.632813 5.109375 h -28.339844 c -5.527343 0 -9.976562 4.460938 -9.976562 10 v 54.03125 c 0 5.542969 4.449219 10 9.976562 10 h 84.042969 c 5.53125 0 9.980469 -4.457031 9.980469 -10 v -62.03125 c 0 -5.539062 -4.449219 -10 -9.980469 -10 z m 0 0" fill="url(#folder_publicshare_a)"/>
    <path d="m 65.976562 32 c -2.746093 0 -5.226562 1.101562 -7.027343 2.890625 c -2.273438 2.253906 -5.382813 5.109375 -8.632813 5.109375 h -28.339844 c -5.527343 0 -9.976562 4.460938 -9.976562 10 v 55.976562 c 0 5.539063 4.449219 10 9.976562 10 h 84.042969 c 5.53125 0 9.980469 -4.460937 9.980469 -10 v -63.976562 c 0 -5.539062 -4.449219 -10 -9.980469 -10 z m 0 0" fill="#a4caee"/>
    <path d="m 74 60 c -3.3125 0 -6 2.679688 -6 6 c 0 0.242188 0.023438 0.492188 0.054688 0.734375 l -9.890626 4.945313 c -1.117187 -1.078126 -2.609374 -1.679688 -4.164062 -1.679688 c -3.3125 0 -6 2.679688 -6 6 c 0 3.3125 2.6875 6 6 6 c 1.546875 -0.007812 3.039062 -0.617188 4.148438 -1.6875 l 9.90625 4.945312 c -0.03125 0.242188 -0.054688 0.492188 -0.054688 0.742188 c 0 3.3125 2.6875 6 6 6 s 6 -2.6875 6 -6 c 0 -3.320312 -2.6875 -6 -6 -6 c -1.546875 0 -3.039062 0.609375 -4.148438 1.6875 l -9.90625 -4.953125 c 0.03125 -0.242187 0.054688 -0.492187 0.054688 -0.734375 c 0 -0.25 -0.015625 -0.5 -0.046875 -0.742188 l 9.890625 -4.945312 c 1.117188 1.070312 2.609375 1.679688 4.15625 1.6875 c 3.3125 0 6 -2.6875 6 -6 c 0 -3.320312 -2.6875 -6 -6 -6 z m 0 0" fill="#438de6"/>
</svg>

<svg xmlns="http://www.w3.org/2000/svg" width="128" height="128" viewBox="0 0 128 128"><linearGradient id="folder_publicshare_a" x1="2689.252" x2="2918.07" y1="-1106.803" y2="-1106.803" gradientTransform="matrix(.45451 0 0 .45552 -1210.292 616.173)" gradientUnits="userSpaceOnUse"><stop offset="0" stop-color="#62a0ea"/><stop offset=".058" stop-color="#afd4ff"/><stop offset=".122" stop-color="#62a0ea"/><stop offset=".873" stop-color="#62a0ea"/><stop offset=".956" stop-color="#c0d5ea"/><stop offset="1" stop-color="#62a0ea"/></linearGradient><path fill="#438de6" d="M21.977 12C16.449 12 12 16.46 12 22v86.031c0 5.543 4.45 10 9.977 10h84.043a9.965 9.965 0 0 0 9.98-10V35.945c0-6.629-5.36-12-11.973-12H58a6.49 6.49 0 0 1-5.797-3.582L50.7 17.371A9.74 9.74 0 0 0 42 12zm0 0"/><path fill="url(#folder_publicshare_a)" d="M65.977 36a9.93 9.93 0 0 0-7.028 2.89C56.676 41.146 53.566 44 50.316 44h-28.34C16.45 44 12 48.46 12 54v54.031c0 5.543 4.45 10 9.977 10h84.043a9.965 9.965 0 0 0 9.98-10V46c0-5.54-4.45-10-9.98-10zm0 0"/><path fill="#a4caee" d="M65.977 32a9.93 9.93 0 0 0-7.028 2.89C56.676 37.146 53.566 40 50.316 40h-28.34C16.45 40 12 44.46 12 50v55.977c0 5.539 4.45 10 9.977 10h84.043c5.53 0 9.98-4.461 9.98-10V42c0-5.54-4.45-10-9.98-10zm0 0"/><path fill="#438de6" d="M74 60c-3.312 0-6 2.68-6 6 0 .242.023.492.055.734l-9.89 4.946A6 6 0 0 0 54 70c-3.312 0-6 2.68-6 6 0 3.313 2.688 6 6 6a6.03 6.03 0 0 0 4.148-1.687l9.907 4.945A6 6 0 0 0 68 86c0 3.313 2.688 6 6 6s6-2.687 6-6c0-3.32-2.687-6-6-6-1.547 0-3.04.61-4.148 1.688l-9.907-4.954c.032-.242.055-.492.055-.734q0-.377-.047-.742l9.89-4.945A6.07 6.07 0 0 0 74 72a6 6 0 0 0 0-12m0 0"/></svg>
